!!!OTL:
!!!ONR: No. 10
!! From Madeleine Beland,
!! "Chansons de Voyageurs, Coureurs de Bois et Forestiers"
!! Quebec: Les Presses de l'universite/ Laval, 1982
!! ISBN 2-7637-6942-X
**kern
*clefG2
*k[f#]
*M6/8
8g
=
4b
8b
8.cc
8.ee
=
4.dd
8b
8r
8dd
=
4cc
8b
4cc
8dd
=
4.b
4r
8g
=
8.b
8.b
8.cc
8.ee
=
4.dd
8b
8r
8dd
=
4dd
8cc
4a
8f#
*M7/8
=
4.g
4r
8r
8dd
*M6/8
=
qdd
4gg
8ff#
4ee
8dd
=
4.dd
8b
8r
8dd
=
8.cc
8.b
8.cc
8.dd
=
4.b
4r
8dd
=
qdd
4gg
8ff#
4ee
8dd
=
4.dd
8b
8r
8dd
=
4dd
8cc
4a
8f#
=
4.g
4r
==
*-
